X:371
T:Matt People's #1
R:reel
D:Molloy, Peoples, Brady
Z:id:hn-reel-371
M:C|
K:Ador
A2eA BAeA|B2gB BAGB|A2eA BAeA|1 BAGA BAAG:|2 BAGB ~A3e||
|:ae~e2 agef|gB~B2 g2fg|1 ae~e2 aged|B2GA BA~A2:|2 afge fded|B2GA BAAG||
